!!!COM: Mozart, Wolfgang Amadeus
!!!OTL: String Quartet No. 7 in E-flat Major
!!!OMD: Presto
!!!OMV: 3
!!!SCT1: K<sup>1</sup> 160
!!!SCA: Chronologisch-thematisches Verzeichnis sämtlicher Tonwerke Wolfgang Amade Mozarts (L. von Köchel; 1862, 2/1905, 3/1937, 1947)
!!!SCT2: K<sup>6</sup> 159a
!!!YOR: Breitkopf & Härtel Edition
!!!ENC: Edmund Correia, Jr.
!!!CDT: 1756/1/27/-1791/12/5/
!!!OCY: Österreich
!!!YEC: Copyright (c) 1994, 2000 Center for Computer Assisted Research in the Humanities
!!!YEM: Rights to all derivative editions reserved.
!!!YEM: Refer to licensing agreement for further details.
!!!YEN: United States of America
**kern	**dynam	**kern	**dynam	**kern	**dynam	**kern	**dynam
*I:Violoncello	*I:Violoncello	*I:Viola	*I:Viola	*I:Violino 2	*I:Violino 2	*I:Violino 1	*I:Violino 1
*>[A,A,B,B]	*	*>[A,A,B,B]	*	*>[A,A,B,B]	*	*>[A,A,B,B]	*
*>A	*	*>A	*	*>A	*	*>A	*
*clefF4	*	*clefC3	*	*clefG2	*	*clefG2	*
*k[b-e-a-]	*	*k[b-e-a-]	*	*k[b-e-a-]	*	*k[b-e-a-]	*
*E-:	*	*E-:	*	*E-:	*	*E-:	*
*M2/4	*	*M2/4	*	*M2/4	*	*M2/4	*
! Presto	!	! Presto	!	! Presto	!	! Presto	!
4E-\	f	4B-/	f	4e-/ 4G/	f	4e-/ 4G/	f
4E-\	.	4B-/	.	8.e-/ 8.G/L	.	8.e-/ 8.G/L	.
.	.	.	.	16e-/ 16G/Jk	.	16e-/ 16G/Jk	.
=2	=2	=2	=2	=2	=2	=2	=2
4E-\	.	4B-/	.	4e-/ 4G/	.	4e-/ 4G/	.
4r	.	4r	.	8.g/L	.	8.g/L	.
.	.	.	.	16e-/Jk	.	16e-/Jk	.
=3	=3	=3	=3	=3	=3	=3	=3
4D\	.	4f\	.	4b-/ 4d/	.	4b-/ 4d/	.
4D\	.	4f\	.	8.b-/ 8.d/L	.	8.b-/ 8.d/L	.
.	.	.	.	16b-/ 16d/Jk	.	16b-/ 16d/Jk	.
=4	=4	=4	=4	=4	=4	=4	=4
4D\	.	4f\	.	4b-/ 4d/	.	4b-/ 4d/	.
4r	.	4r	.	8.dd\L	.	8.dd\L	.
.	.	.	.	16b-\Jk	.	16b-\Jk	.
=5	=5	=5	=5	=5	=5	=5	=5
2C/	.	2e-\	.	8ee-/L	.	8ee-/L	.
.	.	.	.	8e-/	.	8e-/	.
.	.	.	.	8e-/	.	8e-/	.
.	.	.	.	8ee-/J	.	8ee-/J	.
=6	=6	=6	=6	=6	=6	=6	=6
2BB-/	.	2e-\	.	8dd/L	.	8dd/L	.
.	.	.	.	8e-/	.	8e-/	.
.	.	.	.	8e-/	.	8e-/	.
.	.	.	.	8dd/J	.	8dd/J	.
=7	=7	=7	=7	=7	=7	=7	=7
8AA-/L	.	4e-\	.	(4.ccT\	.	(4.ccT\	.
8BB-/	.	.	.	.	.	.	.
8C/	.	4a-\	.	.	.	.	.
8D/J	.	.	.	16b-\LL	.	16b-\LL	.
.	.	.	.	16cc\JJ)	.	16cc\JJ)	.
=8	=8	=8	=8	=8	=8	=8	=8
8E-\L	.	8g\L	.	4b-\	.	4b-\	.
8F\	.	8a-\	.	.	.	.	.
8G\	.	8b-\	.	4r	.	4r	.
8E-\J	.	8g\J	.	.	.	.	.
=9	=9	=9	=9	=9	=9	=9	=9
8F\L	.	8a-\L	.	4cc\	.	4aa-\	.
8G\	.	8b-\	.	.	.	.	.
8F\	.	8a-\	.	4cc\	.	4aa-\	.
8E-\J	.	8g\J	.	.	.	.	.
=10	=10	=10	=10	=10	=10	=10	=10
!	!	!	!	!	!	! 16bb-P/	!
4D\	.	4f\	.	[4b-\	.	8aa-p\L	.
.	.	.	.	.	.	16gg\L	.
.	.	.	.	.	.	16ff\JJ	.
4E-\	.	[4e-\	.	8b-/L]	.	[4gg\	.
.	.	.	.	16a-/L	.	.	.
.	.	.	.	16g/JJ	.	.	.
=11	=11	=11	=11	=11	=11	=11	=11
4.AA-/	.	8e-\L]	.	4.cc\	.	8gg\L]	.
.	.	8en\	.	.	.	8cc\	.
.	.	8f\	.	.	.	8ff\	.
8AAn/	.	8c\J	.	8f/	.	8ee-\J	.
=12	=12	=12	=12	=12	=12	=12	=12
!	!	!	!	! 16gP/	!	! 16ee-P/	!
4BB-/	.	4B-/	.	4fp/	.	4ddp\	.
4BB-/	.	4B-/	.	8e-/L	.	8cc\L	.
.	.	.	.	8d/J	.	8b-\J	.
=13	=13	=13	=13	=13	=13	=13	=13
4D\	.	4.d\	.	4.ff\	.	4.bb-\	.
4D\	.	.	.	.	.	.	.
.	.	8f\	.	8b-\	.	8dd\	.
=14	=14	=14	=14	=14	=14	=14	=14
4E-\	.	4e-\	.	4g/	.	16cc\LL	.
.	.	.	.	.	.	16dd\	.
.	.	.	.	.	.	16cc\	.
.	.	.	.	.	.	16dd\JJ	.
4E-\	.	16e-\LL	.	16cc\LL	.	16ee-\LL	.
.	.	16d\	.	16dd\	.	16ff\	.
.	.	16e-\	.	16cc\	.	16ee-\	.
.	.	16d\JJ	.	16dd\JJ	.	16ff\JJ	.
=15	=15	=15	=15	=15	=15	=15	=15
4E-\	.	8c\L	.	4ee-\	.	4gg\	.
.	.	8c\	.	.	.	.	.
4En\	.	8c\	.	4g/	.	4b-\	.
.	.	8c\J	.	.	.	.	.
=16	=16	=16	=16	=16	=16	=16	=16
4F\	.	4c\	.	4f/	.	4an/	.
4r	.	4r	.	4r	.	4r	.
=17	=17	=17	=17	=17	=17	=17	=17
2r	.	2r	.	8An'/L	p	8cc'\L	p
.	.	.	.	8B-'/	.	8dd'\	.
.	.	.	.	8c'/	.	8ee-'\	.
.	.	.	.	8B-'/J	.	8dd'\J	.
=18	=18	=18	=18	=18	=18	=18	=18
2r	.	2r	.	8An'/L	.	8cc'\L	.
.	.	.	.	8B-'/	.	8dd'\	.
.	.	.	.	8c'/	.	8ee-'\	.
.	.	.	.	8B-'/J	.	8dd'\J	.
=19	=19	=19	=19	=19	=19	=19	=19
[2FF/	f	[2F/	f	8An'/	.	8cc'\	.
.	.	.	.	(8f/L	f	(8aan\L	f
.	.	.	.	8an/	.	8ccc\	.
.	.	.	.	8g/J	.	8bb-\J	.
=20	=20	=20	=20	=20	=20	=20	=20
2FF/]	.	2F/]	.	8f/L	.	8aan\L	.
.	.	.	.	8e-/	.	8gg\	.
.	.	.	.	8d/	.	8ff\	.
.	.	.	.	8c/J)	.	8ee-\J)	.
=21	=21	=21	=21	=21	=21	=21	=21
2r	.	2r	.	8B-'/L	p	8dd'\L	p
.	.	.	.	8c'/	.	8ee-'\	.
.	.	.	.	8d'/	.	8ff'\	.
.	.	.	.	8c'/J	.	8ee-'\J	.
=22	=22	=22	=22	=22	=22	=22	=22
2r	.	2r	.	8B-'/L	.	8dd'\L	.
.	.	.	.	8c'/	.	8ee-'\	.
.	.	.	.	8d'/	.	8ff'\	.
.	.	.	.	8c'/J	.	8ee-'\J	.
=23	=23	=23	=23	=23	=23	=23	=23
[2BB-/	.	[2B-/	.	8B-'/	.	8dd'\	.
.	.	.	.	(8d/L	f	(8ff\L	f
.	.	.	.	8g/	.	8bb-\	.
.	.	.	.	8f/J	.	8aan\J	.
=24	=24	=24	=24	=24	=24	=24	=24
2BB-/]	.	2B-/]	.	8e-/L	.	8gg\L	.
.	.	.	.	8d/	.	8ff\	.
.	.	.	.	8c/	.	8ee-\	.
.	.	.	.	8B-/J)	.	8dd\J)	.
=25	=25	=25	=25	=25	=25	=25	=25
2r	.	2r	.	8An'/L	p	8cc'\L	p
.	.	.	.	8B-'/	.	8dd'\	.
.	.	.	.	8c'/	.	8ee-'\	.
.	.	.	.	8B-'/J	.	8dd'\J	.
=26	=26	=26	=26	=26	=26	=26	=26
2r	.	2r	.	8An'/L	.	8cc'\L	.
.	.	.	.	8B-'/	.	8dd'\	.
.	.	.	.	8c'/	.	8ee-'\	.
.	.	.	.	8B-'/J	.	8dd'\J	.
=27	=27	=27	=27	=27	=27	=27	=27
[2FF/	.	[2F/	.	8An'/xx	.	8cc'\xx	.
.	.	.	.	(8f/L	f	(8aan\L	f
.	.	.	.	8an/	.	8ccc\	.
.	.	.	.	8g/J	.	8bb-\J	.
=28	=28	=28	=28	=28	=28	=28	=28
(2FF/]	.	2F/_	.	8f/L	.	8aan\L	.
.	.	.	.	8e-/	.	8gg\	.
.	.	.	.	8d/	.	8ff\	.
.	.	.	.	8c/J)	.	8ee-\J)	.
=29	=29	=29	=29	=29	=29	=29	=29
4BB-/)	.	4F/]	.	4B-/	.	4dd\	.
4D\	.	4d\	.	[4b-\	.	12ff'\L	.
.	.	.	.	.	.	12dd'\	.
.	.	.	.	.	.	12b-'\J	.
=30	=30	=30	=30	=30	=30	=30	=30
4E-\	.	4e-\	.	4b-\]	.	(12gg\L	.
.	.	.	.	.	.	12ff#\	.
.	.	.	.	.	.	12gg\J)	.
4EE-/	.	4B-/	.	12g'/L	.	12bb-'\L	.
.	.	.	.	12f'/	.	12aan'\	.
.	.	.	.	12e-'/J	.	12gg'\J	.
=31	=31	=31	=31	=31	=31	=31	=31
4BB-/	.	4B-/	.	4d/	.	4ffn\	.
4D\	.	4d\	.	[4b-\	.	12ff\L	.
.	.	.	.	.	.	12dd\	.
.	.	.	.	.	.	12b-\J	.
=32	=32	=32	=32	=32	=32	=32	=32
4E-\	.	4e-\	.	4b-\]	.	(12gg\L	.
.	.	.	.	.	.	12ff#\	.
.	.	.	.	.	.	12gg\J)	.
4EE-/	.	4B-/	.	12g'/Lxx	.	12bb-'\L	.
.	.	.	.	12f'/xx	.	12aan'\	.
.	.	.	.	12e-'/Jxx	.	12gg'\J	.
=33	=33	=33	=33	=33	=33	=33	=33
4BB-/	.	4B-/	.	(8.d/L	.	(8.ffn\L	.
.	.	.	.	32e-/LL	p	32gg\LL	p
.	.	.	.	32f/JJJ)	.	32aan\JJJ)	.
4r	.	4r	.	8g'/L	.	8bb-'\L	.
.	.	.	.	8an'/J	.	8ccc'\J	.
=34	=34	=34	=34	=34	=34	=34	=34
2r	.	2r	.	8b-'/L	.	8ddd'\L	.
.	.	.	.	8an'/	.	8ccc'\	.
.	.	.	.	8g'/	.	8bb-'\	.
.	.	.	.	8f'/J	.	8aan'\J	.
=35	=35	=35	=35	=35	=35	=35	=35
4r	.	4r	.	4e-/	.	4gg\	.
4E-\	.	4e-\	.	4gg/ 4b-/ 4e-/	f	4gg/ 4b-/ 4e-/	f
=36	=36	=36	=36	=36	=36	=36	=36
4F\	.	4f\	.	4ff/ 4b-/ 4d/	.	4ff/ 4b-/ 4d/	.
4FF/	.	4F/	.	4an/ 4e-/ 4c/	.	4an/ 4e-/ 4c/	.
=37	=37	=37	=37	=37	=37	=37	=37
4BB-/	.	4B-/	.	4b-/ 4d/ 4B-/	.	4b-/ 4d/ 4B-/	.
4D\	.	4d\	.	[4b-\	.	12ff'\L	.
.	.	.	.	.	.	12dd'\	.
.	.	.	.	.	.	12b-'\J	.
=38	=38	=38	=38	=38	=38	=38	=38
4E-\	.	4e-\	.	4b-\]	.	(12gg\L	.
.	.	.	.	.	.	12ff#\	.
.	.	.	.	.	.	12gg\J)	.
4EE-/	.	4B-/	.	12g'/Lxx	.	12bb-'\L	.
.	.	.	.	12f'/xx	.	12aan'\	.
.	.	.	.	12e-'/Jxx	.	12gg'\J	.
=39	=39	=39	=39	=39	=39	=39	=39
4BB-/	.	4B-/	.	4d/	.	4ffn\	.
4D\	.	4d\	.	[4b-\	.	12ff\L	.
.	.	.	.	.	.	12dd\	.
.	.	.	.	.	.	12b-\J	.
=40	=40	=40	=40	=40	=40	=40	=40
4E-\	.	4e-\	.	4b-\]	.	(12gg\L	.
.	.	.	.	.	.	12ff#\	.
.	.	.	.	.	.	12gg\J)	.
4EE-/	.	4B-/	.	12g'/Lxx	.	12bb-'\L	.
.	.	.	.	12f'/xx	.	12aan'\	.
.	.	.	.	12e-'/Jxx	.	12gg'\J	.
=41	=41	=41	=41	=41	=41	=41	=41
4BB-/	.	4B-/	.	(8.d/L	.	(8.ffn\L	.
.	.	.	.	32e-/LL	p	32gg\LL	p
.	.	.	.	32f/JJJ)	.	32aan\JJJ)	.
4r	.	4r	.	8g'/L	.	8bb-'\L	.
.	.	.	.	8an'/J	.	8ccc'\J	.
=42	=42	=42	=42	=42	=42	=42	=42
2r	.	2r	.	8b-'/L	.	8ddd'\L	.
.	.	.	.	8an'/	.	8ccc'\	.
.	.	.	.	8g'/	.	8bb-'\	.
.	.	.	.	8f'/J	.	8aan'\J	.
=43	=43	=43	=43	=43	=43	=43	=43
4r	.	4r	.	4e-/	.	4gg\	.
4E-\	.	4e-\	.	4gg/ 4b-/ 4e-/	f	4gg/ 4b-/ 4e-/	f
=44	=44	=44	=44	=44	=44	=44	=44
4F\	.	4f\	.	4ff/ 4b-/ 4d/	.	4ff/ 4b-/ 4d/	.
4FF/	.	4F/	.	4an/ 4e-/ 4c/	.	4an/ 4e-/ 4c/	.
=45	=45	=45	=45	=45	=45	=45	=45
4BB-/	.	4B-/	.	4b-/ 4d/ 4B-/	.	4b-/ 4d/ 4B-/	.
4r	.	(12d\L	p	(12f/L	p	4r	.
.	.	12e-\	.	12g/	.	.	.
.	.	12d\J	.	12f/J	.	.	.
=46	=46	=46	=46	=46	=46	=46	=46
2r	.	12c\L	.	12e-/L	.	2r	.
.	.	12d\	.	12f/	.	.	.
.	.	12c\J	.	12e-/J	.	.	.
.	.	12B-/L	.	12d/L	.	.	.
.	.	12c/	.	12e-/	.	.	.
.	.	12B-/J)	.	12d/J)	.	.	.
=47	=47	=47	=47	=47	=47	=47	=47
[2F\	p	2An/	.	2c/	.	(12ff\L	p
.	.	.	.	.	.	12gg\	.
.	.	.	.	.	.	12ff\J	.
.	.	.	.	.	.	12ee-\L	.
.	.	.	.	.	.	12ff\	.
.	.	.	.	.	.	12ee-\J	.
=48	=48	=48	=48	=48	=48	=48	=48
2F\]	.	(4B-/	.	(4d/	.	12dd\L	.
.	.	.	.	.	.	12ee-\	.
.	.	.	.	.	.	12dd\J	.
.	.	4An/)	.	4e-/)	.	12cc\L	.
.	.	.	.	.	.	12dd\	.
.	.	.	.	.	.	12cc\J)	.
=49	=49	=49	=49	=49	=49	=49	=49
4BB-/	.	4B-/	.	4d/	.	4b-\	.
4r	.	(12d\L	.	(12f/L	.	4r	.
.	.	12e-\	.	12g/	.	.	.
.	.	12d\J	.	12f/J	.	.	.
=50	=50	=50	=50	=50	=50	=50	=50
2r	.	12c\L	.	12e-/L	.	2r	.
.	.	12d\	.	12f/	.	.	.
.	.	12c\J	.	12e-/J	.	.	.
.	.	12B-/L	.	12d/L	.	.	.
.	.	12c/	.	12e-/	.	.	.
.	.	12B-/J)	.	12d/J)	.	.	.
=51	=51	=51	=51	=51	=51	=51	=51
[2F\	.	2An/	.	2c/	.	(12ff\L	.
.	.	.	.	.	.	12gg\	.
.	.	.	.	.	.	12ff\J	.
.	.	.	.	.	.	12ee-\L	.
.	.	.	.	.	.	12ff\	.
.	.	.	.	.	.	12ee-\J	.
=52	=52	=52	=52	=52	=52	=52	=52
2F\]	.	(4B-/	.	(4d/	.	12dd\L	.
.	.	.	.	.	.	12ee-\	.
.	.	.	.	.	.	12dd\J	.
.	.	4An/)	.	4e-/)	.	12cc\L	.
.	.	.	.	.	.	12dd\	.
.	.	.	.	.	.	12cc\J)	.
=53	=53	=53	=53	=53	=53	=53	=53
4BB-/	.	4B-/	.	4d/	.	4b-\	.
4BB-/	f	4d\ 4B-\	f	4dd/ 4f/ 4B-/	f	4bb-\ 4b-\ 4d\	f
=54	=54	=54	=54	=54	=54	=54	=54
4BB-/	.	4B-/	.	4B-/	.	4B-/	.
4r	.	4r	.	4r	.	4r	.
=55:!!:	=55:!!:	=55:!!:	=55:!!:	=55:!!:	=55:!!:	=55:!!:	=55:!!:
*>B	*	*>B	*	*>B	*	*>B	*
4BB-/	p	4d\	p	8r	.	8r	.
.	.	.	.	(8f/L	p	(8ff\L	p
4r	.	4r	.	8d/	.	8dd\	.
.	.	.	.	8B-/J)	.	8b-\J)	.
=56	=56	=56	=56	=56	=56	=56	=56
4D\	.	4F/	.	8r	.	8r	.
.	.	.	.	(8f/L	.	(8ff\L	.
4r	.	4r	.	8d/	.	8dd\	.
.	.	.	.	8B-/J)	.	8b-\J)	.
=57	=57	=57	=57	=57	=57	=57	=57
4C/	.	4E-/	.	8r	.	8r	.
.	.	.	.	(8An/L	.	(8an\L	.
4r	.	4r	.	8c/	.	8cc\	.
.	.	.	.	8e-/J)	.	8ee-\J)	.
=58	=58	=58	=58	=58	=58	=58	=58
4F\	.	4c\	.	8r	.	8r	.
.	.	.	.	(8An/L	.	(8an\L	.
4r	.	4r	.	8c/	.	8cc\	.
.	.	.	.	8e-/J)	.	8ee-\J)	.
=59	=59	=59	=59	=59	=59	=59	=59
4BB-/	f	12B-\L	f	12d/L	f	12dd\L	f
.	.	12c\	.	12e-/	.	12ee-\	.
.	.	12d\J	.	12f/J	.	12ff\J	.
4r	.	12e-\L	.	12g/L	.	12gg\L	.
.	.	12f\	.	12an/	.	12aan\	.
.	.	12g\J	.	12b-/J	.	12bb-\J	.
=60	=60	=60	=60	=60	=60	=60	=60
2r	.	12f\L	.	12an/L	.	12aan\L	.
.	.	12g\	.	12b-/	.	12bb-\	.
.	.	12f\J	.	12a/J	.	12aa\J	.
.	.	12e-\L	.	12g/L	.	12gg\L	.
.	.	12d\	.	12f/	.	12ff\	.
.	.	12c\J	.	12e-/J	.	12ee-\J	.
=61	=61	=61	=61	=61	=61	=61	=61
12BB-/L	.	12d\L	.	4d/	.	4dd\	.
12C/	.	12e-\	.	.	.	.	.
12D/J	.	12f\J	.	.	.	.	.
12E-\L	.	12g\L	.	4r	.	4r	.
12F\	.	12an\	.	.	.	.	.
12G\J	.	12b-\J	.	.	.	.	.
=62	=62	=62	=62	=62	=62	=62	=62
12F\L	.	12an\L	.	2r	.	2r	.
12G\	.	12b-\	.	.	.	.	.
12F\J	.	12a\J	.	.	.	.	.
12E-\L	.	12g\L	.	.	.	.	.
12D\	.	12f\	.	.	.	.	.
12C\J	.	12e-\J	.	.	.	.	.
=63	=63	=63	=63	=63	=63	=63	=63
4BB-/	p	4d\	p	8r	.	8r	.
.	.	.	.	(8f/L	p	(8ff\L	p
4r	.	4r	.	8d/	.	8dd\	.
.	.	.	.	8B-/J)	.	8b-\J)	.
=64	=64	=64	=64	=64	=64	=64	=64
4D\	.	4F/	.	8r	.	8r	.
.	.	.	.	(8f/L	.	(8ff\L	.
4r	.	4r	.	8d/	.	8dd\	.
.	.	.	.	8B-/J)	.	8b-\J)	.
=65	=65	=65	=65	=65	=65	=65	=65
4C/	.	4E-/	.	8r	.	8r	.
.	.	.	.	(8An/L	.	(8an\L	.
4r	.	4r	.	8c/	.	8cc\	.
.	.	.	.	8e-/J)	.	8ee-\J)	.
=66	=66	=66	=66	=66	=66	=66	=66
4F\	.	4c\	.	8r	.	8r	.
.	.	.	.	(8An/L	.	(8an\L	.
4r	.	4r	.	8c/	.	8cc\	.
.	.	.	.	8e-/J)	.	8ee-\J)	.
=67	=67	=67	=67	=67	=67	=67	=67
4BB-/	f	12B-\L	f	12d/L	f	12dd\L	f
.	.	12c\	.	12e-/	.	12ee-\	.
.	.	12d\J	.	12f/J	.	12ff\J	.
4r	.	12e-\L	.	12g/L	.	12gg\L	.
.	.	12f\	.	12an/	.	12aan\	.
.	.	12g\J	.	12b-/J	.	12bb-\J	.
=68	=68	=68	=68	=68	=68	=68	=68
2r	.	12f\L	.	12an/L	.	12aan\L	.
.	.	12g\	.	12b-/	.	12bb-\	.
.	.	12f\J	.	12a/J	.	12aa\J	.
.	.	12e-\L	.	12g/L	.	12gg\L	.
.	.	12d\	.	12f/	.	12ff\	.
.	.	12c\J	.	12e-/J	.	12ee-\J	.
=69	=69	=69	=69	=69	=69	=69	=69
12BB-/L	.	12d\L	.	4d/	.	4dd\	.
12C/	.	12e-\	.	.	.	.	.
12D/J	.	12f\J	.	.	.	.	.
12E-\L	.	12g\L	.	4r	.	4r	.
12F\	.	12an\	.	.	.	.	.
12G\J	.	12b-\J	.	.	.	.	.
=70	=70	=70	=70	=70	=70	=70	=70
12F\L	.	12an\L	.	2r	.	2r	.
12G\	.	12b-\	.	.	.	.	.
12F\J	.	12a\J	.	.	.	.	.
12E-\L	.	12g\L	.	.	.	.	.
12D\	.	12f\	.	.	.	.	.
12C\J	.	12e-\J	.	.	.	.	.
=71	=71	=71	=71	=71	=71	=71	=71
4BB-/	.	4d\	.	2r	.	12B-/L	p
.	.	.	.	.	.	12d/	.
.	.	.	.	.	.	12c/J	.
4BB-/	p	4r	.	.	.	12B-/L	.
.	.	.	.	.	.	12d/	.
.	.	.	.	.	.	12c/J	.
=72	=72	=72	=72	=72	=72	=72	=72
4BB-/	.	2r	.	2r	.	12B-/L	.
.	.	.	.	.	.	12d/	.
.	.	.	.	.	.	12e-/J	.
4BB-/	.	.	.	.	.	12f/L	.
.	.	.	.	.	.	12e-/	.
.	.	.	.	.	.	12d/J	.
=73	=73	=73	=73	=73	=73	=73	=73
4BB-/	.	2r	.	2r	.	12c/L	.
.	.	.	.	.	.	12e-/	.
.	.	.	.	.	.	12d/J	.
4BB-/	.	.	.	.	.	12c/L	.
.	.	.	.	.	.	12e-/	.
.	.	.	.	.	.	12d/J	.
=74	=74	=74	=74	=74	=74	=74	=74
4BB-/	.	2r	.	2r	.	12c/L	.
.	.	.	.	.	.	12e-/	.
.	.	.	.	.	.	12f/J	.
4BB-/	.	.	.	.	.	12g/L	.
.	.	.	.	.	.	12f/	.
.	.	.	.	.	.	12e-/J	.
=75	=75	=75	=75	=75	=75	=75	=75
4BB-/	.	[2b-\	p	12B-/L	p	12d/L	.
.	.	.	.	12d/	.	12f/	.
.	.	.	.	12c/J	.	12e-/J	.
4BB-/	.	.	.	12B-/L	.	12d/L	.
.	.	.	.	12d/	.	12f/	.
.	.	.	.	12c/J	.	12e-/J	.
=76	=76	=76	=76	=76	=76	=76	=76
4BB-/	.	2b-\_	.	12B-/L	.	12d/L	.
.	.	.	.	12d/	.	12f/	.
.	.	.	.	12e-/J	.	12g/J	.
4BB-/	.	.	.	12f/L	.	12a-/L	.
.	.	.	.	12e-/	.	12g/	.
.	.	.	.	12d/J	.	12f/J	.
=77	=77	=77	=77	=77	=77	=77	=77
4BB-/	.	2b-\_	.	12c/L	.	12e-/L	.
.	.	.	.	12e-/	.	12g/	.
.	.	.	.	12d/J	.	12f/J	.
4BB-/	.	.	.	12c/L	.	12e-/L	.
.	.	.	.	12e-/	.	12g/	.
.	.	.	.	12d/J	.	12f/J	.
=78	=78	=78	=78	=78	=78	=78	=78
4BB-/	.	2b-\]	.	12c/L	.	12e-/L	.
.	.	.	.	12e-/	.	12g/	.
.	.	.	.	12f/J	.	12a-/J	.
4BB-/	.	.	.	12g/L	.	12b-/L	.
.	.	.	.	12f/	.	12a-/	.
.	.	.	.	12e-/J	.	12g/J	.
=79	=79	=79	=79	=79	=79	=79	=79
4BB-/	.	[2B-/	.	12d/L	.	12f/L	.
.	.	.	.	12c/	.	12e-/	.
.	.	.	.	12d/J	.	12f/J	.
4BB-/	.	.	.	12e-/L	.	12g/L	.
.	.	.	.	12d/	.	12f/	.
.	.	.	.	12e-/J	.	12g/J	.
=80	=80	=80	=80	=80	=80	=80	=80
4BB-/	.	2B-/_	.	12f/L	.	12a-/L	.
.	.	.	.	12e-/	.	12g/	.
.	.	.	.	12f/J	.	12a-/J	.
4BB-/	.	.	.	12g/L	.	12b-\L	.
.	.	.	.	12f/	.	12a-\	.
.	.	.	.	12g/J	.	12b-\J	.
=81	=81	=81	=81	=81	=81	=81	=81
! crescendo	!	! crescendo	!	! crescendo	!	! crescendo	!
4BB-/	.	2B-/_	.	12a-/L	.	12cc\L	.
.	.	.	.	12g/	.	12b-\	.
.	.	.	.	12a-/J	.	12cc\J	.
4BB-/	.	.	.	12g/L	.	12b-/L	.
.	.	.	.	12f/	.	12a-/	.
.	.	.	.	12g/J	.	12b-/J	.
=82	=82	=82	=82	=82	=82	=82	=82
4BB-/	.	4B-/]	.	12a-/L	.	12cc\L	.
.	.	.	.	12g/	.	12b-\	.
.	.	.	.	12a-/J	.	12cc\J	.
4BB-/	.	4a-\	.	12f/L	.	12dd\L	.
.	.	.	.	12e-/	.	12cc\	.
.	.	.	.	12f/J	.	12dd\J	.
=83	=83	=83	=83	=83	=83	=83	=83
8E-\L	f	8g\L	f	8e-/L	f	8ee-/L	f
8E-\	.	8e-\	.	8e-/	.	8e-/	.
8G\	.	8g\	.	8g/	.	8g/	.
8B-\J	.	8b-\J	.	8b-/J	.	8b-/J	.
=84	=84	=84	=84	=84	=84	=84	=84
8A-\L	.	8a-\L	.	8a-/L	.	8a-/L	.
8G\	.	8g\	.	8g/	.	8g/	.
8F\	.	8f\	.	8f/	.	8f/	.
8E-\J	.	8e-\J	.	8e-/J	.	8e-/J	.
=85	=85	=85	=85	=85	=85	=85	=85
4BB-/	.	4B-/	.	4d/	.	4d/	.
4B-\	.	4b-\	.	4bb-\ 4b-\ 4d\	.	4bb-\ 4b-\ 4d\	.
=86	=86	=86	=86	=86	=86	=86	=86
4BB-/	.	4B-/	.	4B-/	.	4B-/	.
4r	.	4r	.	4r	.	4r	.
=87	=87	=87	=87	=87	=87	=87	=87
4E-\	.	4B-/	.	4e-/ 4G/	.	4e-/ 4G/	.
4E-\	.	4B-/	.	8.e-/ 8.G/L	.	8.e-/ 8.G/L	.
.	.	.	.	16e-/ 16G/Jk	.	16e-/ 16G/Jk	.
=88	=88	=88	=88	=88	=88	=88	=88
4E-\	.	4B-/	.	4e-/ 4G/	.	4e-/ 4G/	.
4r	.	4r	.	8.g/L	.	8.g/L	.
.	.	.	.	16e-/Jk	.	16e-/Jk	.
=89	=89	=89	=89	=89	=89	=89	=89
4D\	.	4f\	.	4b-/ 4d/	.	4b-/ 4d/	.
4D\	.	4f\	.	8.b-/ 8.d/L	.	8.b-/ 8.d/L	.
.	.	.	.	16b-/ 16d/Jk	.	16b-/ 16d/Jk	.
=90	=90	=90	=90	=90	=90	=90	=90
4D\	.	4f\	.	4b-/ 4d/	.	4b-/ 4d/	.
4r	.	4r	.	8.dd\L	.	8.dd\L	.
.	.	.	.	16b-\Jk	.	16b-\Jk	.
=91	=91	=91	=91	=91	=91	=91	=91
2C/	.	[2e-\	.	8ee-/L	.	8ee-/L	.
.	.	.	.	8e-/	.	8e-/	.
.	.	.	.	8e-/	.	8e-/	.
.	.	.	.	8ee-/J	.	8ee-/J	.
=92	=92	=92	=92	=92	=92	=92	=92
2BB-/	.	2e-\]	.	8dd/L	.	8dd/L	.
.	.	.	.	8e-/	.	8e-/	.
.	.	.	.	8e-/	.	8e-/	.
.	.	.	.	8dd/J	.	8dd/J	.
=93	=93	=93	=93	=93	=93	=93	=93
8AA-/L	.	4e-\	.	(4.ccT\	.	(4.ccT\	.
8BB-/	.	.	.	.	.	.	.
8C/	.	4a-\	.	.	.	.	.
8D/J	.	.	.	16b-\LL	.	16b-\LL	.
.	.	.	.	16cc\JJ)	.	16cc\JJ)	.
=94	=94	=94	=94	=94	=94	=94	=94
8E-\L	.	8g\L	.	4b-\	.	4b-\	.
8F\	.	8a-\	.	.	.	.	.
8G\	.	8b-\	.	4r	.	4r	.
8E-\J	.	8g\J	.	.	.	.	.
=95	=95	=95	=95	=95	=95	=95	=95
8F\L	.	8a-\L	.	4cc\	.	4aa-\	.
8G\	.	8b-\	.	.	.	.	.
8F\	.	8a-\	.	4cc\	.	4aa-\	.
8E-\J	.	8g\J	.	.	.	.	.
=96	=96	=96	=96	=96	=96	=96	=96
!	!	!	!	!	!	! 16bb-P/	!
4D\	.	4f\	.	[4b-\	.	8aa-p\L	.
.	.	.	.	.	.	16gg\L	.
.	.	.	.	.	.	16ff\JJ	.
4E-\	.	[4e-\	.	8b-/L]	.	[4gg\	.
.	.	.	.	16a-/L	.	.	.
.	.	.	.	16g/JJ	.	.	.
=97	=97	=97	=97	=97	=97	=97	=97
4.AA-/	.	8e-\L]	.	4.cc\	.	8gg\L]	.
.	.	8en\	.	.	.	8cc\	.
.	.	8f\	.	.	.	8ff\	.
8AAn/	.	8c\J	.	8f/	.	8ee-\J	.
=98	=98	=98	=98	=98	=98	=98	=98
!	!	!	!	! 16gP/	!	! 16ee-P/	!
4BB-/	.	4B-/	.	4fp/	.	4ddp\	.
4BB-/	.	4B-/	.	8e-/L	.	8cc\L	.
.	.	.	.	8d/J	.	8b-\J	.
=99	=99	=99	=99	=99	=99	=99	=99
4E-\	.	4B-/	.	4e-/	.	4e-/	.
4E-\	.	4B-/	.	8.e-/ 8.G/L	.	8.e-/ 8.G/L	.
.	.	.	.	16e-/ 16G/Jk	.	16e-/ 16G/Jk	.
=100	=100	=100	=100	=100	=100	=100	=100
4E-\	.	4B-/	.	4e-/ 4G/	.	4e-/ 4G/	.
4r	.	4r	.	8.g/L	.	8.g/L	.
.	.	.	.	16e-/Jk	.	16e-/Jk	.
=101	=101	=101	=101	=101	=101	=101	=101
4D\	.	4f\	.	4b-/ 4d/	.	4b-/ 4d/	.
4D\	.	4f\	.	8.b-/ 8.d/L	.	8.b-/ 8.d/L	.
.	.	.	.	16b-/ 16d/Jk	.	16b-/ 16d/Jk	.
=102	=102	=102	=102	=102	=102	=102	=102
4D\	.	4f\	.	4b-/ 4d/	.	4b-/ 4d/	.
4r	.	4r	.	8.dd\L	.	8.dd\L	.
.	.	.	.	16b-\Jk	.	16b-\Jk	.
=103	=103	=103	=103	=103	=103	=103	=103
2C/	.	[2e-\	.	8ee-/L	.	8ee-/L	.
.	.	.	.	8e-/	.	8e-/	.
.	.	.	.	8e-/	.	8e-/	.
.	.	.	.	8ee-/J	.	8ee-/J	.
=104	=104	=104	=104	=104	=104	=104	=104
2BB-/	.	2e-\]	.	8dd/L	.	8dd/L	.
.	.	.	.	8e-/	.	8e-/	.
.	.	.	.	8e-/	.	8e-/	.
.	.	.	.	8dd/J	.	8dd/J	.
=105	=105	=105	=105	=105	=105	=105	=105
8AA-/L	.	4e-\	.	(4.ccT\	.	(4.ccT\	.
8BB-/	.	.	.	.	.	.	.
8C/	.	4a-\	.	.	.	.	.
8D/J	.	.	.	16b-\LL	.	16b-\LL	.
.	.	.	.	16cc\JJ)	.	16cc\JJ)	.
=106	=106	=106	=106	=106	=106	=106	=106
8E-\L	.	8g\L	.	4b-\	.	4b-\	.
8F\	.	8a-\	.	.	.	.	.
8G\	.	8b-\	.	4r	.	4r	.
8E-\J	.	8g\J	.	.	.	.	.
=107	=107	=107	=107	=107	=107	=107	=107
8F\L	.	8a-\L	.	4cc\	.	4aa-\	.
8G\	.	8b-\	.	.	.	.	.
8F\	.	8a-\	.	4cc\	.	4aa-\	.
8E-\J	.	8g\J	.	.	.	.	.
=108	=108	=108	=108	=108	=108	=108	=108
!	!	!	!	!	!	! 16bb-P/	!
4D\	.	4f\	.	4b-\	.	8aa-p\L	.
.	.	.	.	.	.	16gg\L	.
.	.	.	.	.	.	16ff\JJ	.
!	!	!	!	! 16ccP/	!	! 16aa-P/	!
4E-\	.	[4e-\	.	8b-p/L	.	8ggp\L	.
.	.	.	.	16a-/L	.	16ff\L	.
.	.	.	.	16g/JJ	.	16ee-\JJ	.
=109	=109	=109	=109	=109	=109	=109	=109
4AA-/	.	8e-\L]	.	8f/L	.	4cc\	.
.	.	8c\	.	8a-/J	.	.	.
!	!	!	!	! 16gP/	!	! 16ee-P/	!
4BB-/	.	8B-\	.	8fp/L	.	8ddp\L	.
.	.	8A-\J	.	16e-/L	.	16cc\L	.
.	.	.	.	16f/JJ	.	16dd\JJ	.
=110	=110	=110	=110	=110	=110	=110	=110
4EE-/	.	4G/	.	4e-/	.	4ee-\	.
4r	.	4r	.	4r	.	4r	.
=111	=111	=111	=111	=111	=111	=111	=111
2r	.	2r	.	8f'/L	p	8a-'/L	p
.	.	.	.	8e-'/	.	8g'/	.
.	.	.	.	8d'/	.	8f'/	.
.	.	.	.	8e-'/J	.	8g'/J	.
=112	=112	=112	=112	=112	=112	=112	=112
2r	.	2r	.	8f'/L	.	8a-'/L	.
.	.	.	.	8e-'/	.	8g'/	.
.	.	.	.	8d'/	.	8f'/	.
.	.	.	.	8e-'/J	.	8g'/J	.
=113	=113	=113	=113	=113	=113	=113	=113
[2BB-/	f	[2B-/	f	8f'/	.	8a-'/	.
.	.	.	.	(8b-\L	f	(8dd\L	f
.	.	.	.	8dd\	.	8ff\	.
.	.	.	.	8cc\J	.	8ee-\J	.
=114	=114	=114	=114	=114	=114	=114	=114
2BB-/]	.	2B-/]	.	8b-/L	.	8dd\L	.
.	.	.	.	8a-/	.	8cc\	.
.	.	.	.	8g/	.	8b-\	.
.	.	.	.	8f/J)	.	8a-\J)	.
=115	=115	=115	=115	=115	=115	=115	=115
2r	.	2r	.	8g'/L	p	8b-'/L	p
.	.	.	.	8f'/	.	8a-'/	.
.	.	.	.	8e-'/	.	8g'/	.
.	.	.	.	8f'/J	.	8a-'/J	.
=116	=116	=116	=116	=116	=116	=116	=116
2r	.	2r	.	8g'/L	.	8b-'/L	.
.	.	.	.	8f'/	.	8a-'/	.
.	.	.	.	8e-'/	.	8g'/	.
.	.	.	.	8f'/J	.	8a-'/J	.
=117	=117	=117	=117	=117	=117	=117	=117
[2EE-/	.	[2E-/	.	8g'/	.	8b-'\	.
.	.	.	.	(8b-\L	f	(8ee-\L	f
.	.	.	.	8ee-\	.	8gg\	.
.	.	.	.	8dd\J	.	8ff\J	.
=118	=118	=118	=118	=118	=118	=118	=118
2EE-/]	.	2E-/]	.	8cc/L	.	8ee-\L	.
.	.	.	.	8b-/	.	8dd\	.
.	.	.	.	8a-/	.	8cc\	.
.	.	.	.	8g/J)	.	8b-\J)	.
=119	=119	=119	=119	=119	=119	=119	=119
2r	.	2r	.	8f'/L	p	8a-'/L	p
.	.	.	.	8e-'/	.	8g'/	.
.	.	.	.	8d'/	.	8f'/	.
.	.	.	.	8e-'/J	.	8g'/J	.
=120	=120	=120	=120	=120	=120	=120	=120
2r	.	2r	.	8f'/L	.	8a-'/L	.
.	.	.	.	8e-'/	.	8g'/	.
.	.	.	.	8d'/	.	8f'/	.
.	.	.	.	8e-'/J	.	8g'/J	.
=121	=121	=121	=121	=121	=121	=121	=121
[2BB-/	.	[2B-/	.	8f'/	.	8a-'/	.
.	.	.	.	(8b-\L	f	(8dd\L	f
.	.	.	.	8dd\	.	8ff\	.
.	.	.	.	8cc\J	.	8ee-\J	.
=122	=122	=122	=122	=122	=122	=122	=122
2BB-/]	.	2B-/]	.	8b-/L	.	8dd\L	.
.	.	.	.	8a-/	.	8cc\	.
.	.	.	.	8g/	.	8b-\	.
.	.	.	.	8f/J)	.	8a-\J)	.
=123	=123	=123	=123	=123	=123	=123	=123
4E-\	.	4B-/	.	4e-/	.	4g/	.
4GG/	.	4G/	.	[4ee-\	.	12b-/L	.
.	.	.	.	.	.	12g/	.
.	.	.	.	.	.	12e-/J	.
=124	=124	=124	=124	=124	=124	=124	=124
4AA-/	.	4A-/	.	4ee-\]	.	(12cc\L	.
.	.	.	.	.	.	12bn\	.
.	.	.	.	.	.	12cc\J)	.
4A-\	.	4e-\	.	12cc'\Lxx	.	12ee-'\L	.
.	.	.	.	12b-'\xx	.	12dd'\	.
.	.	.	.	12a-'\Jxx	.	12cc'\J	.
=125	=125	=125	=125	=125	=125	=125	=125
4E-\	.	4e-\	.	4g/	.	4b-\	.
4GG/	.	4G/	.	[4ee-\	.	12b-/L	.
.	.	.	.	.	.	12g/	.
.	.	.	.	.	.	12e-/J	.
=126	=126	=126	=126	=126	=126	=126	=126
4AA-/	.	4A-/	.	4ee-\]	.	(12cc\L	.
.	.	.	.	.	.	12bn\	.
.	.	.	.	.	.	12cc\J)	.
4AA-/	.	4E-/	.	12c'/Lxx	.	12ee-'\L	.
.	.	.	.	12B-'/xx	.	12dd'\	.
.	.	.	.	12A-'/Jxx	.	12cc'\J	.
=127	=127	=127	=127	=127	=127	=127	=127
4EE-/	.	4E-/	.	(8.G/L	.	(8.b-\L	.
.	.	.	.	32A-/LL	p	32cc\LL	p
.	.	.	.	32B-/JJJ)	.	32dd\JJJ)	.
4r	.	4r	.	8c'/L	.	8ee-'\L	.
.	.	.	.	8d'/J	.	8ff'\J	.
=128	=128	=128	=128	=128	=128	=128	=128
2r	.	2r	.	8e-'/L	.	8gg'\L	.
.	.	.	.	8d'/	.	8ff'\	.
.	.	.	.	8c'/	.	8ee-'\	.
.	.	.	.	8B-'/J	.	8dd'\J	.
=129	=129	=129	=129	=129	=129	=129	=129
4r	.	4r	.	4A-/	.	4cc\	.
4A-\	.	4a-\	.	4cc/xx 4e-/ 4A-/	f	4cc/ 4e-/ 4A-/	f
=130	=130	=130	=130	=130	=130	=130	=130
4B-\	.	4b-\	.	4b-/ 4e-/ 4G/	.	4b-/ 4e-/ 4G/	.
4BB-/	.	4B-/	.	4dd/ 4f/ 4B-/	.	4dd/ 4f/ 4B-/	.
=131	=131	=131	=131	=131	=131	=131	=131
4E-\	.	4e-\	.	4ee-/ 4g/ 4B-/	.	4ee-/ 4g/ 4B-/	.
4GG/	.	4G/	.	[4ee-\	.	12b-/L	.
.	.	.	.	.	.	12g/	.
.	.	.	.	.	.	12e-/J	.
=132	=132	=132	=132	=132	=132	=132	=132
4AA-/	.	4A-/	.	4ee-\]	.	(12cc\L	.
.	.	.	.	.	.	12bn\	.
.	.	.	.	.	.	12cc\J)	.
4A-\	.	4e-\	.	12cc'\Lxx	.	12ee-'\L	.
.	.	.	.	12b-'\xx	.	12dd'\	.
.	.	.	.	12a-'\Jxx	.	12cc'\J	.
=133	=133	=133	=133	=133	=133	=133	=133
4E-\	.	4e-\	.	4g/	.	4b-\	.
4GG/	.	4G/	.	[4ee-\	.	12b-/L	.
.	.	.	.	.	.	12g/	.
.	.	.	.	.	.	12e-/J	.
=134	=134	=134	=134	=134	=134	=134	=134
4AA-/	.	4A-/	.	4ee-\]	.	(12cc\L	.
.	.	.	.	.	.	12bn\	.
.	.	.	.	.	.	12cc\J)	.
4AA-/	.	4E-/	.	12c'/Lxx	.	12ee-'\L	.
.	.	.	.	12B-'/xx	.	12dd'\	.
.	.	.	.	12A-'/Jxx	.	12cc'\J	.
=135	=135	=135	=135	=135	=135	=135	=135
4EE-/	.	4E-/	.	(8.G/L	.	(8.b-\L	.
.	.	.	.	32A-/LL	p	32cc\LL	p
.	.	.	.	32B-/JJJ)	.	32dd\JJJ)	.
4r	.	4r	.	8c'/L	.	8ee-'\L	.
.	.	.	.	8d'/J	.	8ff'\J	.
=136	=136	=136	=136	=136	=136	=136	=136
2r	.	2r	.	8e-'/L	.	8gg'\L	.
.	.	.	.	8d'/	.	8ff'\	.
.	.	.	.	8c'/	.	8ee-'\	.
.	.	.	.	8B-'/J	.	8dd'\J	.
=137	=137	=137	=137	=137	=137	=137	=137
4r	.	4r	.	4A-/	.	4cc\	.
4A-\	.	4a-\	.	4cc/ 4e-/ 4A-/	f	4cc/ 4e-/ 4A-/	f
=138	=138	=138	=138	=138	=138	=138	=138
4B-\	.	4b-\	.	4b-/ 4e-/ 4G/	.	4b-/ 4e-/ 4G/	.
4BB-/	.	4B-/	.	4dd/ 4f/ 4B-/	.	4dd/ 4f/ 4B-/	.
=139	=139	=139	=139	=139	=139	=139	=139
4E-\	.	4B-/	.	4ee-/ 4e-/ 4G/	.	4ee-/ 4g/ 4B-/	.
4r	.	(12g\L	p	(12b-\L	p	4r	.
.	.	12a-\	.	12cc\	.	.	.
.	.	12g\J	.	12b-\J	.	.	.
=140	=140	=140	=140	=140	=140	=140	=140
2r	.	12f\L	.	12a-/L	.	2r	.
.	.	12g\	.	12b-/	.	.	.
.	.	12f\J	.	12a-/J	.	.	.
.	.	12e-\L	.	12g/L	.	.	.
.	.	12f\	.	12a-/	.	.	.
.	.	12e-\J)	.	12g/J)	.	.	.
=141	=141	=141	=141	=141	=141	=141	=141
[2BB-/	p	2d\	.	(2f/	.	(12bb-\L	p
.	.	.	.	.	.	12ccc\	.
.	.	.	.	.	.	12bb-\J	.
.	.	.	.	.	.	12aa-\L	.
.	.	.	.	.	.	12bb-\	.
.	.	.	.	.	.	12aa-\J	.
=142	=142	=142	=142	=142	=142	=142	=142
2BB-/]	.	(4e-\	.	4g/	.	12gg\L	.
.	.	.	.	.	.	12aa-\	.
.	.	.	.	.	.	12gg\J	.
.	.	4d\)	.	4a-/)	.	12ff\L	.
.	.	.	.	.	.	12gg\	.
.	.	.	.	.	.	12ff\J)	.
=143	=143	=143	=143	=143	=143	=143	=143
4E-\	.	4e-\	.	4g/	.	4ee-\	.
4r	.	(12B-/L	.	(12g/L	.	4r	.
.	.	12c/	.	12a-/	.	.	.
.	.	12B-/J	.	12g/J	.	.	.
=144	=144	=144	=144	=144	=144	=144	=144
2r	.	12A-/L	.	12f/L	.	2r	.
.	.	12B-/	.	12g/	.	.	.
.	.	12A-/J	.	12f/J	.	.	.
.	.	12G/L	.	12e-/L	.	.	.
.	.	12A-/	.	12f/	.	.	.
.	.	12G/J)	.	12e-/J)	.	.	.
=145	=145	=145	=145	=145	=145	=145	=145
[2BB-/	.	2F/	.	2d/	.	(12b-\L	.
.	.	.	.	.	.	12cc\	.
.	.	.	.	.	.	12b-\J	.
.	.	.	.	.	.	12a-/L	.
.	.	.	.	.	.	12b-/	.
.	.	.	.	.	.	12a-/J	.
=146	=146	=146	=146	=146	=146	=146	=146
2BB-/]	.	(4G/	.	(4e-/	.	12g/L	.
.	.	.	.	.	.	12a-/	.
.	.	.	.	.	.	12g/J	.
.	.	4A-/)	.	4d/)	.	12f/L	.
.	.	.	.	.	.	12g/	.
.	.	.	.	.	.	12f/J)	.
=147	=147	=147	=147	=147	=147	=147	=147
4EE-/	f	4B-/	f	4e-/ 4G/	f	4e-/ 4G/	f
8.EE-/L	.	4B-/	.	8.e-/ 8.G/L	.	8.e-/ 8.G/L	.
16EE-/Jk	.	.	.	16e-/ 16G/Jk	.	16e-/ 16G/Jk	.
=148	=148	=148	=148	=148	=148	=148	=148
4EE-/	.	4B-/	.	4e-/ 4G/	.	4e-/ 4G/	.
8.GG/L	.	8.g\L	.	8.g/L	.	8.g/L	.
16EE-/Jk	.	16e-\Jk	.	16e-/Jk	.	16e-/Jk	.
=149	=149	=149	=149	=149	=149	=149	=149
4BB-/	.	4b-\	.	4b-/ 4d/	.	4b-/ 4d/	.
4BB-/	.	4f\	.	8.b-/ 8.d/L	.	8.b-/ 8.d/L	.
.	.	.	.	16b-/ 16d/Jk	.	16b-/ 16d/Jk	.
=150	=150	=150	=150	=150	=150	=150	=150
4B-\	.	4f\	.	4b-/ 4d/	.	4b-/ 4d/	.
4A-\	.	8.f\L	.	8.dd\L	.	8.dd\L	.
.	.	16d\Jk	.	16b-\Jk	.	16b-\Jk	.
=151	=151	=151	=151	=151	=151	=151	=151
4G\	.	4B-/	.	4ee-\	.	4ee-\	.
4E-\	.	4e-\	.	4gg\ 4b-\ 4e-\	.	4gg\ 4b-\ 4e-\	.
=152	=152	=152	=152	=152	=152	=152	=152
4A-\	.	4f\	.	4aa-\ 4cc\ 4e-\	.	4aa-\ 4cc\ 4e-\	.
4B-\	.	4a-\	.	4ff/ 4b-/ 4d/	.	4ff/ 4b-/ 4d/	.
=153	=153	=153	=153	=153	=153	=153	=153
4E-\	.	4g\	.	4ee-/ 4e-/ 4G/	.	4ee-/ 4e-/ 4G/	.
8.EE-/L	.	8.B-/L	.	8.e-/ 8.G/L	.	8.e-/ 8.G/L	.
16EE-/Jk	.	16B-/Jk	.	16e-/ 16G/Jk	.	16e-/ 16G/Jk	.
=154	=154	=154	=154	=154	=154	=154	=154
4EE-/	.	4B-/	.	4e-/ 4G/	.	4e-/ 4G/	.
4r	.	4r	.	4r	.	4r	.
==:|!	==:|!	==:|!	==:|!	==:|!	==:|!	==:|!	==:|!
*-	*-	*-	*-	*-	*-	*-	*-
!!!RWG: Appoggiaturas of spine 'Violino 1' need manual editing in measures: 10, 12, 96, 98, 108, 108, 109
!!!RWG: Appoggiaturas of spine 'Violino 2' need manual editing in measures: 12, 98, 108, 109
!!!RWG: Key is interpreted using the Humdrum key tool.
!!!AFT: stage2
!!!END: 1994/07/01
!!!KEY: 610969372
!!!EMD: Converted from MuseData to Humdrum Dec 16, 2000, by Andreas Kornstaedt using muse2kern.
!!!EMD: Manual editing by Craig Sapp, Nov 2001
